autumn.cube
#Generated with IWLTBAP LUT Generator
#Website: http://luts.iwltbap.com
TITLE "hald_presetsstore_25 (1)"
#LUT size
LUT_3D_SIZE 9
#LUT data points
0.047059 0.050980 0.070588
0.035294 0.078431 0.086275
0.062745 0.098039 0.078431
0.270588 0.117647 0.090196
0.513725 0.070588 0.047059
0.686275 0.070588 0.050980
0.796078 0.109804 0.043137
0.937255 0.152941 0.050980
0.843137 0.223529 0.219608
0.270588 0.000000 0.000000
0.050980 0.098039 0.058824
0.058824 0.125490 0.054902
0.188235 0.160784 0.050980
0.384314 0.164706 0.027451
0.623529 0.149020 0.035294
0.835294 0.145098 0.094118
0.870588 0.262745 0.090196
0.866667 0.294118 0.235294
0.349020 0.113725 0.000000
0.000000 0.223529 0.000000
0.160784 0.180392 0.023529
0.207843 0.188235 0.000000
0.427451 0.176471 0.000000
0.682353 0.188235 0.000000
0.847059 0.203922 0.000000
0.964706 0.270588 0.003922
0.784314 0.435294 0.160784
0.172549 0.211765 0.000000
0.015686 0.294118 0.035294
0.062745 0.298039 0.054902
0.239216 0.325490 0.031373
0.462745 0.333333 0.000000
0.600000 0.329412 0.000000
0.764706 0.258824 0.000000
0.964706 0.313725 0.015686
1.000000 0.337255 0.023529
0.078431 0.450980 0.000000
0.145098 0.435294 0.125490
0.031373 0.521569 0.113725
0.262745 0.486275 0.027451
0.396078 0.576471 0.090196
0.619608 0.482353 0.019608
0.843137 0.450980 0.011765
0.843137 0.509804 0.043137
0.839216 0.666667 0.254902
0.090196 0.627451 0.282353
0.062745 0.643137 0.274510
0.062745 0.635294 0.247059
0.172549 0.568627 0.168627
0.458824 0.568627 0.168627
0.666667 0.607843 0.211765
0.772549 0.623529 0.188235
0.858824 0.615686 0.141176
0.831373 0.760784 0.376471
0.258824 0.576471 0.113725
0.035294 0.709804 0.270588
0.137255 0.741176 0.301961
0.180392 0.690196 0.211765
0.388235 0.713725 0.203922
0.694118 0.772549 0.290196
0.850980 0.717647 0.294118
0.792157 0.729412 0.192157
0.819608 0.792157 0.372549
0.572549 0.639216 0.435294
0.180392 0.745098 0.505882
0.388235 0.701961 0.549020
0.427451 0.811765 0.517647
0.627451 0.780392 0.517647
0.850980 0.768627 0.513725
0.972549 0.741176 0.466667
1.000000 0.756863 0.458824
0.960784 0.901961 0.631373
0.501961 0.835294 0.509804
0.384314 0.945098 0.701961
0.423529 0.952941 0.721569
0.537255 0.929412 0.643137
0.611765 0.886275 0.690196
0.772549 0.909804 0.752941
0.964706 0.870588 0.768627
1.000000 0.780392 0.698039
1.000000 0.803922 0.701961
0.000000 0.160784 0.121569
0.000000 0.188235 0.129412
0.000000 0.215686 0.113725
0.011765 0.156863 0.027451
0.266667 0.164706 0.027451
0.439216 0.180392 0.043137
0.654902 0.231373 0.078431
0.803922 0.286275 0.094118
0.733333 0.388235 0.294118
0.121569 0.149020 0.019608
0.000000 0.231373 0.133333
0.000000 0.219608 0.117647
0.003922 0.231373 0.082353
0.168627 0.254902 0.062745
0.368627 0.247059 0.066667
0.588235 0.290196 0.156863
0.623529 0.380392 0.141176
0.682353 0.392157 0.294118
0.278431 0.152941 0.000000
0.000000 0.274510 0.000000
0.070588 0.215686 0.003922
0.066667 0.250980 0.000000
0.321569 0.262745 0.007843
0.525490 0.211765 0.000000
0.713725 0.235294 0.000000
0.823529 0.286275 0.011765
0.800000 0.411765 0.180392
0.164706 0.266667 0.000000
0.019608 0.356863 0.062745
0.000000 0.356863 0.054902
0.141176 0.372549 0.058824
0.301961 0.345098 0.000000
0.466667 0.384314 0.000000
0.698039 0.407843 0.000000
0.811765 0.384314 0.000000
0.839216 0.411765 0.000000
0.023529 0.447059 0.011765
0.031373 0.411765 0.211765
0.000000 0.533333 0.243137
0.184314 0.478431 0.145098
0.345098 0.556863 0.211765
0.584314 0.474510 0.149020
0.803922 0.439216 0.137255
0.803922 0.486275 0.164706
0.796078 0.643137 0.372549
0.109804 0.564706 0.309804
0.082353 0.572549 0.305882
0.082353 0.572549 0.274510
0.203922 0.521569 0.211765
0.505882 0.541176 0.231373
0.678431 0.549020 0.239216
0.847059 0.584314 0.274510
0.941176 0.584314 0.219608
0.827451 0.662745 0.372549
0.321569 0.537255 0.207843
0.152941 0.729412 0.415686
0.164706 0.674510 0.337255
0.223529 0.650980 0.286275
0.403922 0.662745 0.278431
0.698039 0.729412 0.333333
0.854902 0.698039 0.313725
0.752941 0.741176 0.290196
0.831373 0.729412 0.400000
0.705882 0.701961 0.439216
0.325490 0.831373 0.509804
0.509804 0.780392 0.533333
0.509804 0.811765 0.498039
0.756863 0.819608 0.533333
0.909804 0.713725 0.443137
1.000000 0.701961 0.427451
1.000000 0.709804 0.411765
1.000000 0.945098 0.647059
0.694118 0.745098 0.431373
0.603922 0.898039 0.635294
0.549020 0.913725 0.639216
0.686275 0.870588 0.588235
0.690196 0.827451 0.576471
0.890196 0.898039 0.650980
1.000000 0.858824 0.611765
1.000000 0.760784 0.509804
1.000000 0.788235 0.537255
0.000000 0.137255 0.054902
0.000000 0.156863 0.050980
0.000000 0.184314 0.058824
0.101961 0.180392 0.043137
0.329412 0.121569 0.000000
0.482353 0.113725 0.000000
0.627451 0.125490 0.000000
0.827451 0.231373 0.039216
0.654902 0.247059 0.133333
0.180392 0.184314 0.000000
0.000000 0.250980 0.058824
0.000000 0.203922 0.031373
0.011765 0.207843 0.015686
0.180392 0.200000 0.000000
0.427451 0.223529 0.000000
0.623529 0.227451 0.007843
0.741176 0.380392 0.133333
0.800000 0.349020 0.235294
0.415686 0.078431 0.011765
0.000000 0.164706 0.050980
0.207843 0.152941 0.109804
0.247059 0.180392 0.078431
0.474510 0.164706 0.098039
0.615686 0.043137 0.000000
0.788235 0.054902 0.000000
0.905882 0.121569 0.031373
0.709804 0.356863 0.160784
0.325490 0.196078 0.027451
0.164706 0.266667 0.152941
0.101961 0.278431 0.156863
0.290196 0.290196 0.156863
0.427451 0.278431 0.000000
0.603922 0.333333 0.031373
0.819608 0.337255 0.035294
0.925490 0.305882 0.015686
0.956863 0.329412 0.031373
0.164706 0.462745 0.035294
0.000000 0.466667 0.207843
0.019608 0.521569 0.231373
0.082353 0.533333 0.137255
0.415686 0.564706 0.239216
0.556863 0.513725 0.192157
0.796078 0.470588 0.274510
0.811765 0.509804 0.243137
0.776471 0.623529 0.321569
0.086275 0.588235 0.356863
0.058824 0.600000 0.356863
0.070588 0.607843 0.333333
0.219608 0.588235 0.298039
0.505882 0.592157 0.305882
0.698039 0.611765 0.325490
0.858824 0.572549 0.270588
0.925490 0.549020 0.207843
0.862745 0.674510 0.415686
0.368627 0.560784 0.200000
0.196078 0.713725 0.478431
0.109804 0.662745 0.392157
0.180392 0.643137 0.352941
0.360784 0.639216 0.325490
0.682353 0.717647 0.407843
0.866667 0.698039 0.392157
0.827451 0.768627 0.364706
0.898039 0.780392 0.505882
0.635294 0.627451 0.427451
0.270588 0.780392 0.537255
0.466667 0.729412 0.568627
0.439216 0.733333 0.509804
0.690196 0.745098 0.537255
0.968627 0.768627 0.560784
1.000000 0.721569 0.486275
1.000000 0.701961 0.435294
1.000000 0.886275 0.584314
0.580392 0.796078 0.470588
0.439216 0.937255 0.658824
0.431373 1.000000 0.729412
0.549020 0.909804 0.647059
0.690196 0.831373 0.650980
0.835294 0.839216 0.674510
1.000000 0.788235 0.639216
1.000000 0.745098 0.615686
1.000000 0.764706 0.658824
0.000000 0.172549 0.180392
0.000000 0.200000 0.184314
0.000000 0.215686 0.180392
0.082353 0.152941 0.105882
0.309804 0.105882 0.054902
0.454902 0.078431 0.031373
0.670588 0.152941 0.070588
0.756863 0.152941 0.019608
0.741176 0.321569 0.282353
0.149020 0.160784 0.000000
0.000000 0.207843 0.117647
0.000000 0.231373 0.129412
0.000000 0.223529 0.098039
0.141176 0.188235 0.047059
0.462745 0.266667 0.121569
0.666667 0.262745 0.125490
0.631373 0.337255 0.109804
0.713725 0.360784 0.258824
0.309804 0.070588 0.090196
0.000000 0.200000 0.176471
0.101961 0.133333 0.184314
0.168627 0.250980 0.184314
0.345098 0.188235 0.141176
0.505882 0.098039 0.054902
0.662745 0.094118 0.019608
0.733333 0.105882 0.003922
0.784314 0.439216 0.352941
0.254902 0.266667 0.098039
0.109804 0.396078 0.282353
0.000000 0.345098 0.243137
0.180392 0.329412 0.231373
0.407843 0.337255 0.243137
0.560784 0.360784 0.254902
0.733333 0.329412 0.207843
0.831373 0.298039 0.149020
0.858824 0.321569 0.156863
0.270588 0.313725 0.188235
0.156863 0.364706 0.419608
0.129412 0.376471 0.403922
0.262745 0.454902 0.368627
0.545098 0.435294 0.423529
0.737255 0.450980 0.313725
0.956863 0.411765 0.384314
0.949020 0.486275 0.368627
0.901961 0.631373 0.466667
0.090196 0.552941 0.490196
0.117647 0.525490 0.482353
0.145098 0.541176 0.470588
0.215686 0.564706 0.439216
0.549020 0.607843 0.486275
0.760784 0.556863 0.470588
0.686275 0.639216 0.450980
0.788235 0.635294 0.364706
0.686275 0.701961 0.501961
0.227451 0.686275 0.337255
0.129412 0.725490 0.564706
0.098039 0.690196 0.513725
0.184314 0.686275 0.494118
0.341176 0.674510 0.458824
0.639216 0.737255 0.513725
0.811765 0.713725 0.494118
0.972549 0.760784 0.509804
0.886275 0.800000 0.607843
0.670588 0.674510 0.552941
0.321569 0.811765 0.678431
0.517647 0.756863 0.729412
0.517647 0.776471 0.670588
0.741176 0.760784 0.674510
0.937255 0.717647 0.627451
1.000000 0.686275 0.568627
1.000000 0.690196 0.541176
1.000000 0.882353 0.709804
0.686275 0.729412 0.560784
0.470588 0.972549 0.784314
0.611765 0.898039 0.819608
0.592157 0.937255 0.772549
0.749020 0.862745 0.741176
0.898039 0.886275 0.756863
1.000000 0.878431 0.741176
1.000000 0.725490 0.568627
1.000000 0.733333 0.560784
0.000000 0.145098 0.243137
0.000000 0.121569 0.239216
0.000000 0.137255 0.227451
0.039216 0.172549 0.207843
0.298039 0.141176 0.176471
0.478431 0.058824 0.129412
0.776471 0.090196 0.203922
0.843137 0.094118 0.113725
0.815686 0.278431 0.349020
0.231373 0.149020 0.066667
0.043137 0.109804 0.211765
0.000000 0.164706 0.223529
0.133333 0.203922 0.250980
0.325490 0.180392 0.211765
0.521569 0.101961 0.141176
0.690196 0.035294 0.101961
0.713725 0.203922 0.141176
0.725490 0.368627 0.364706
0.431373 0.121569 0.196078
0.000000 0.188235 0.239216
0.184314 0.164706 0.321569
0.223529 0.258824 0.325490
0.490196 0.262745 0.356863
0.607843 0.086275 0.192157
0.800000 0.086275 0.176471
0.850980 0.062745 0.133333
0.784314 0.431373 0.400000
0.384314 0.247059 0.231373
0.000000 0.337255 0.294118
0.039216 0.235294 0.278431
0.086275 0.376471 0.325490
0.717647 0.250980 0.325490
0.843137 0.250980 0.317647
1.000000 0.207843 0.254902
1.000000 0.200000 0.239216
1.000000 0.192157 0.215686
0.172549 0.439216 0.278431
0.200000 0.423529 0.501961
0.039216 0.470588 0.474510
0.321569 0.458824 0.431373
0.490196 0.541176 0.505882
0.764706 0.490196 0.443137
0.847059 0.486275 0.498039
1.000000 0.443137 0.466667
0.843137 0.627451 0.545098
0.121569 0.568627 0.607843
0.149020 0.541176 0.600000
0.176471 0.556863 0.592157
0.235294 0.568627 0.549020
0.552941 0.596078 0.580392
0.776471 0.552941 0.576471
0.870588 0.537255 0.549020
0.964706 0.572549 0.478431
0.894118 0.721569 0.686275
0.286275 0.670588 0.447059
0.164706 0.698039 0.650980
0.070588 0.729412 0.631373
0.137255 0.678431 0.576471
0.349020 0.674510 0.564706
0.682353 0.721569 0.623529
0.925490 0.737255 0.650980
0.972549 0.654902 0.541176
0.917647 0.749020 0.686275
0.701961 0.603922 0.690196
0.360784 0.784314 0.831373
0.556863 0.749020 0.874510
0.525490 0.796078 0.823529
0.639216 0.756863 0.749020
0.823529 0.713725 0.698039
0.980392 0.666667 0.678431
1.000000 0.619608 0.670588
1.000000 0.866667 0.827451
0.776471 0.705882 0.698039
0.654902 0.858824 0.901961
0.733333 0.784314 0.909804
0.556863 0.882353 0.850980
0.721569 0.854902 0.749020
0.858824 0.874510 0.768627
1.000000 0.839216 0.721569
1.000000 0.796078 0.662745
1.000000 0.807843 0.670588
0.023529 0.152941 0.321569
0.007843 0.172549 0.329412
0.047059 0.203922 0.341176
0.168627 0.207843 0.305882
0.368627 0.200000 0.274510
0.545098 0.243137 0.313725
0.678431 0.192157 0.294118
0.752941 0.113725 0.196078
0.768627 0.254902 0.450980
0.258824 0.172549 0.184314
0.007843 0.235294 0.380392
0.011765 0.101961 0.266667
0.109804 0.152941 0.278431
0.262745 0.192157 0.278431
0.525490 0.286275 0.345098
0.600000 0.219608 0.262745
0.650980 0.180392 0.184314
0.831373 0.372549 0.478431
0.466667 0.109804 0.333333
0.007843 0.149020 0.337255
0.152941 0.066667 0.321569
0.231373 0.196078 0.372549
0.427451 0.247059 0.388235
0.670588 0.290196 0.411765
0.788235 0.215686 0.360784
0.847059 0.152941 0.333333
0.890196 0.345098 0.466667
0.317647 0.207843 0.254902
0.000000 0.305882 0.321569
0.094118 0.262745 0.388235
0.188235 0.333333 0.407843
0.482353 0.345098 0.423529
0.623529 0.360784 0.431373
0.800000 0.333333 0.407843
0.898039 0.305882 0.380392
0.898039 0.305882 0.372549
0.364706 0.364706 0.364706
0.152941 0.403922 0.545098
0.098039 0.309804 0.458824
0.247059 0.380392 0.419608
0.509804 0.458824 0.529412
0.717647 0.552941 0.560784
0.925490 0.454902 0.592157
0.956863 0.498039 0.568627
1.000000 0.658824 0.705882
0.058824 0.494118 0.674510
0.047059 0.505882 0.678431
0.078431 0.541176 0.690196
0.227451 0.560784 0.682353
0.478431 0.603922 0.701961
0.627451 0.631373 0.713725
0.764706 0.654902 0.639216
0.929412 0.635294 0.611765
0.901961 0.705882 0.803922
0.474510 0.592157 0.545098
0.243137 0.670588 0.752941
0.160784 0.662745 0.698039
0.235294 0.658824 0.666667
0.439216 0.694118 0.678431
0.658824 0.698039 0.666667
0.831373 0.678431 0.650980
0.945098 0.756863 0.670588
0.866667 0.807843 0.788235
0.584314 0.725490 0.780392
0.258824 0.874510 0.901961
0.419608 0.788235 0.898039
0.494118 0.819608 0.882353
0.615686 0.815686 0.827451
0.772549 0.807843 0.796078
0.894118 0.760784 0.756863
0.964706 0.725490 0.756863
1.000000 0.941176 0.878431
0.654902 0.792157 0.764706
0.466667 0.878431 0.894118
0.603922 0.862745 0.964706
0.419608 0.952941 0.898039
0.635294 0.894118 0.847059
0.768627 0.909804 0.862745
0.937255 0.890196 0.835294
0.996078 0.850980 0.780392
0.984314 0.854902 0.780392
0.000000 0.149020 0.517647
0.000000 0.156863 0.541176
0.000000 0.152941 0.545098
0.062745 0.160784 0.525490
0.337255 0.243137 0.549020
0.454902 0.231373 0.498039
0.705882 0.364706 0.529412
0.890196 0.403922 0.513725
0.835294 0.450980 0.682353
0.258824 0.254902 0.427451
0.000000 0.176471 0.423529
0.000000 0.121569 0.423529
0.105882 0.113725 0.403922
0.372549 0.207843 0.458824
0.627451 0.301961 0.505882
0.788235 0.376471 0.537255
0.784314 0.388235 0.615686
0.752941 0.392157 0.717647
0.505882 0.188235 0.486275
0.039216 0.164706 0.490196
0.192157 0.039216 0.490196
0.223529 0.117647 0.498039
0.541176 0.219608 0.552941
0.650980 0.254902 0.482353
0.854902 0.372549 0.552941
1.000000 0.388235 0.588235
0.996078 0.470588 0.858824
0.309804 0.223529 0.607843
0.000000 0.262745 0.670588
0.117647 0.176471 0.682353
0.090196 0.305882 0.698039
0.533333 0.325490 0.545098
0.690196 0.415686 0.611765
0.894118 0.501961 0.650980
0.984314 0.482353 0.611765
0.984314 0.431373 0.564706
0.258824 0.317647 0.478431
0.125490 0.305882 0.690196
0.078431 0.274510 0.654902
0.125490 0.301961 0.533333
0.458824 0.376471 0.631373
0.717647 0.478431 0.643137
0.803922 0.611765 0.698039
1.000000 0.533333 0.705882
0.988235 0.674510 0.905882
0.027451 0.494118 0.627451
0.003922 0.498039 0.647059
0.011765 0.494118 0.654902
0.117647 0.482353 0.611765
0.356863 0.521569 0.584314
0.564706 0.600000 0.627451
0.686275 0.670588 0.729412
0.800000 0.647059 0.658824
0.807843 0.780392 0.901961
0.321569 0.639216 0.713725
0.098039 0.600000 0.752941
0.086275 0.741176 0.874510
0.145098 0.666667 0.788235
0.376471 0.705882 0.800000
0.560784 0.756863 0.800000
0.643137 0.780392 0.764706
0.870588 0.835294 0.705882
0.878431 0.878431 0.847059
0.486275 0.654902 0.792157
0.101961 0.694118 0.870588
0.317647 0.619608 0.925490
0.317647 0.729412 0.952941
0.592157 0.749020 0.941176
0.745098 0.792157 0.878431
0.862745 0.819608 0.850980
1.000000 0.807843 0.850980
0.949020 0.960784 0.988235
0.615686 0.749020 0.756863
0.450980 0.937255 0.976471
0.505882 0.819608 0.949020
0.415686 0.925490 0.925490
0.643137 0.815686 0.913725
0.752941 0.866667 0.937255
0.890196 0.886275 0.909804
0.956863 0.819608 0.835294
1.000000 0.800000 0.831373
0.000000 0.227451 0.611765
0.000000 0.223529 0.654902
0.000000 0.207843 0.682353
0.000000 0.105882 0.552941
0.313725 0.278431 0.627451
0.486275 0.337255 0.623529
0.615686 0.415686 0.635294
0.756863 0.537255 0.682353
0.788235 0.596078 0.913725
0.168627 0.278431 0.533333
0.000000 0.317647 0.666667
0.000000 0.235294 0.627451
0.000000 0.160784 0.549020
0.168627 0.196078 0.541176
0.494118 0.356863 0.607843
0.709804 0.454902 0.611765
0.835294 0.607843 0.603922
0.756863 0.560784 0.792157
0.313725 0.156863 0.674510
0.000000 0.156863 0.749020
0.054902 0.050980 0.756863
0.031373 0.149020 0.831373
0.384314 0.321569 0.909804
0.603922 0.364706 0.823529
0.749020 0.415686 0.780392
0.901961 0.556863 0.862745
0.792157 0.576471 0.894118
0.207843 0.184314 0.568627
0.000000 0.274510 0.713725
0.101961 0.203922 0.686275
0.082353 0.282353 0.741176
0.364706 0.400000 0.694118
0.662745 0.501961 0.800000
0.796078 0.458824 0.698039
0.909804 0.596078 0.733333
0.972549 0.662745 0.749020
0.219608 0.258824 0.643137
0.007843 0.368627 0.945098
0.000000 0.239216 0.721569
0.000000 0.262745 0.862745
0.352941 0.372549 0.843137
0.639216 0.494118 0.870588
0.827451 0.588235 0.862745
0.894118 0.682353 0.886275
0.878431 0.647059 1.000000
0.133333 0.490196 0.839216
0.109804 0.486275 0.878431
0.101961 0.474510 0.905882
0.129412 0.372549 0.776471
0.325490 0.368627 0.678431
0.611765 0.541176 0.784314
0.803922 0.674510 0.788235
0.862745 0.745098 0.776471
0.866667 0.788235 0.988235
0.415686 0.588235 0.741176
0.082353 0.607843 0.854902
0.019608 0.678431 0.925490
0.070588 0.619608 0.858824
0.227451 0.611765 0.788235
0.435294 0.658824 0.733333
0.662745 0.768627 0.741176
0.717647 0.866667 0.705882
0.776471 0.952941 1.000000
0.431373 0.584314 0.752941
0.101961 0.611765 0.854902
0.250980 0.509804 0.886275
0.207843 0.580392 0.941176
0.415686 0.607843 0.866667
0.670588 0.682353 0.811765
0.866667 0.784314 0.803922
0.933333 0.839216 0.792157
0.901961 0.956863 0.968627
0.309804 0.705882 0.815686
0.039216 0.772549 0.941176
0.258824 0.764706 0.992157
0.266667 0.854902 1.000000
0.572549 0.803922 1.000000
0.768627 0.803922 1.000000
0.913725 0.788235 0.984314
0.925490 0.870588 0.937255
0.929412 0.937255 0.925490
0.031373 0.035294 0.827451
0.015686 0.058824 0.764706
0.019608 0.058824 0.737255
0.113725 0.015686 0.752941
0.439216 0.152941 0.807843
0.674510 0.282353 0.800000
0.796078 0.470588 0.792157
0.941176 0.501961 0.682353
0.815686 0.698039 1.000000
0.247059 0.200000 0.592157
0.015686 0.125490 0.686275
0.000000 0.164706 0.690196
0.023529 0.086275 0.666667
0.325490 0.172549 0.772549
0.662745 0.360784 0.878431
0.827451 0.458824 0.839216
0.811765 0.556863 0.823529
0.882353 0.470588 1.000000
0.309804 0.094118 0.592157
0.086275 0.082353 0.725490
0.105882 0.035294 0.678431
0.164706 0.047059 0.666667
0.474510 0.168627 0.803922
0.823529 0.325490 0.909804
0.988235 0.407843 0.854902
1.000000 0.474510 0.800000
0.937255 0.443137 1.000000
0.247059 0.105882 0.827451
0.082353 0.125490 0.964706
0.050980 0.160784 0.968627
0.074510 0.023529 0.925490
0.309804 0.156863 0.709804
0.772549 0.423529 0.933333
0.972549 0.478431 0.858824
0.956863 0.607843 0.796078
0.917647 0.725490 0.811765
0.172549 0.200000 0.717647
0.000000 0.325490 0.949020
0.035294 0.247059 0.772549
0.000000 0.235294 0.933333
0.196078 0.313725 0.894118
0.498039 0.474510 0.819608
0.827451 0.592157 0.874510
0.854902 0.674510 0.858824
0.796078 0.662745 0.964706
0.000000 0.525490 1.000000
0.000000 0.545098 0.988235
0.000000 0.545098 0.968627
0.000000 0.435294 0.941176
0.047059 0.415686 0.870588
0.294118 0.584314 0.925490
0.686275 0.678431 0.925490
0.909804 0.690196 0.803922
0.690196 0.870588 1.000000
0.141176 0.552941 0.729412
0.023529 0.705882 0.984314
0.000000 0.709804 1.000000
0.000000 0.658824 1.000000
0.086275 0.627451 0.976471
0.258824 0.603922 0.894118
0.592157 0.772549 0.976471
0.686275 0.913725 0.756863
0.772549 0.854902 0.960784
0.086275 0.686275 0.850980
0.000000 0.823529 1.000000
0.062745 0.745098 1.000000
0.000000 0.741176 1.000000
0.035294 0.737255 1.000000
0.129412 0.674510 0.898039
0.509804 0.796078 0.933333
0.776471 0.850980 0.917647
0.760784 0.996078 0.964706
0.231373 0.792157 0.815686
0.094118 0.882353 0.945098
0.050980 0.964706 0.952941
0.105882 0.890196 0.952941
0.011765 1.000000 1.000000
0.180392 0.890196 0.972549
0.654902 0.909804 0.980392
0.878431 0.937255 0.964706
0.992157 0.952941 0.988235
