autumn.cube
#Generated with IWLTBAP LUT Generator
#Website: http://luts.iwltbap.com
TITLE "hald_presetsstore_25 (1)"
#LUT size
LUT_3D_SIZE 5
#LUT data points
0.047059 0.050980 0.070588
0.062745 0.098039 0.078431
0.513725 0.070588 0.047059
0.796078 0.109804 0.043137
0.843137 0.223529 0.219608
0.349020 0.113725 0.000000
0.160784 0.180392 0.023529
0.427451 0.176471 0.000000
0.847059 0.203922 0.000000
0.784314 0.435294 0.160784
0.078431 0.450980 0.000000
0.031373 0.521569 0.113725
0.396078 0.576471 0.090196
0.843137 0.450980 0.011765
0.839216 0.666667 0.254902
0.258824 0.576471 0.113725
0.137255 0.741176 0.301961
0.388235 0.713725 0.203922
0.850980 0.717647 0.294118
0.819608 0.792157 0.372549
0.501961 0.835294 0.509804
0.423529 0.952941 0.721569
0.611765 0.886275 0.690196
0.964706 0.870588 0.768627
1.000000 0.803922 0.701961
0.000000 0.137255 0.054902
0.000000 0.184314 0.058824
0.329412 0.121569 0.000000
0.627451 0.125490 0.000000
0.654902 0.247059 0.133333
0.415686 0.078431 0.011765
0.207843 0.152941 0.109804
0.474510 0.164706 0.098039
0.788235 0.054902 0.000000
0.709804 0.356863 0.160784
0.164706 0.462745 0.035294
0.019608 0.521569 0.231373
0.415686 0.564706 0.239216
0.796078 0.470588 0.274510
0.776471 0.623529 0.321569
0.368627 0.560784 0.200000
0.109804 0.662745 0.392157
0.360784 0.639216 0.325490
0.866667 0.698039 0.392157
0.898039 0.780392 0.505882
0.580392 0.796078 0.470588
0.431373 1.000000 0.729412
0.690196 0.831373 0.650980
1.000000 0.788235 0.639216
1.000000 0.764706 0.658824
0.000000 0.145098 0.243137
0.000000 0.137255 0.227451
0.298039 0.141176 0.176471
0.776471 0.090196 0.203922
0.815686 0.278431 0.349020
0.431373 0.121569 0.196078
0.184314 0.164706 0.321569
0.490196 0.262745 0.356863
0.800000 0.086275 0.176471
0.784314 0.431373 0.400000
0.172549 0.439216 0.278431
0.039216 0.470588 0.474510
0.490196 0.541176 0.505882
0.847059 0.486275 0.498039
0.843137 0.627451 0.545098
0.286275 0.670588 0.447059
0.070588 0.729412 0.631373
0.349020 0.674510 0.564706
0.925490 0.737255 0.650980
0.917647 0.749020 0.686275
0.776471 0.705882 0.698039
0.733333 0.784314 0.909804
0.721569 0.854902 0.749020
1.000000 0.839216 0.721569
1.000000 0.807843 0.670588
0.000000 0.149020 0.517647
0.000000 0.152941 0.545098
0.337255 0.243137 0.549020
0.705882 0.364706 0.529412
0.835294 0.450980 0.682353
0.505882 0.188235 0.486275
0.192157 0.039216 0.490196
0.541176 0.219608 0.552941
0.854902 0.372549 0.552941
0.996078 0.470588 0.858824
0.258824 0.317647 0.478431
0.078431 0.274510 0.654902
0.458824 0.376471 0.631373
0.803922 0.611765 0.698039
0.988235 0.674510 0.905882
0.321569 0.639216 0.713725
0.086275 0.741176 0.874510
0.376471 0.705882 0.800000
0.643137 0.780392 0.764706
0.878431 0.878431 0.847059
0.615686 0.749020 0.756863
0.505882 0.819608 0.949020
0.643137 0.815686 0.913725
0.890196 0.886275 0.909804
1.000000 0.800000 0.831373
0.031373 0.035294 0.827451
0.019608 0.058824 0.737255
0.439216 0.152941 0.807843
0.796078 0.470588 0.792157
0.815686 0.698039 1.000000
0.309804 0.094118 0.592157
0.105882 0.035294 0.678431
0.474510 0.168627 0.803922
0.988235 0.407843 0.854902
0.937255 0.443137 1.000000
0.172549 0.200000 0.717647
0.035294 0.247059 0.772549
0.196078 0.313725 0.894118
0.827451 0.592157 0.874510
0.796078 0.662745 0.964706
0.141176 0.552941 0.729412
0.000000 0.709804 1.000000
0.086275 0.627451 0.976471
0.592157 0.772549 0.976471
0.772549 0.854902 0.960784
0.231373 0.792157 0.815686
0.050980 0.964706 0.952941
0.011765 1.000000 1.000000
0.654902 0.909804 0.980392
0.992157 0.952941 0.988235
