autumn.cube
#Generated with IWLTBAP LUT Generator
#Website: http://luts.iwltbap.com
TITLE "hald_presetsstore_25 (1)"
#LUT size
LUT_3D_SIZE 25
#LUT data points
0.047059 0.050980 0.070588
0.039216 0.050980 0.070588
0.035294 0.066667 0.078431
0.035294 0.078431 0.086275
0.031373 0.086275 0.086275
0.047059 0.094118 0.086275
0.062745 0.098039 0.078431
0.098039 0.086275 0.066667
0.196078 0.129412 0.101961
0.270588 0.117647 0.090196
0.360784 0.113725 0.086275
0.435294 0.094118 0.066667
0.513725 0.070588 0.047059
0.580392 0.058824 0.039216
0.643137 0.058824 0.035294
0.686275 0.070588 0.050980
0.784314 0.019608 0.043137
0.784314 0.058824 0.047059
0.796078 0.109804 0.043137
0.831373 0.149020 0.043137
0.886275 0.168627 0.043137
0.937255 0.152941 0.050980
0.964706 0.141176 0.074510
0.921569 0.149020 0.117647
0.843137 0.223529 0.219608
0.368627 0.003922 0.000000
0.133333 0.023529 0.000000
0.000000 0.066667 0.011765
0.000000 0.078431 0.027451
0.035294 0.109804 0.086275
0.086275 0.050980 0.054902
0.200000 0.078431 0.109804
0.192157 0.082353 0.000000
0.239216 0.101961 0.023529
0.305882 0.121569 0.050980
0.368627 0.121569 0.054902
0.435294 0.109804 0.054902
0.501961 0.086275 0.035294
0.576471 0.074510 0.031373
0.643137 0.062745 0.023529
0.701961 0.043137 0.007843
0.752941 0.039216 0.000000
0.811765 0.043137 0.000000
0.858824 0.062745 0.007843
0.913725 0.082353 0.027451
0.952941 0.109804 0.039216
0.976471 0.125490 0.050980
0.996078 0.137255 0.058824
1.000000 0.129412 0.133333
0.780392 0.301961 0.211765
0.101961 0.109804 0.000000
0.000000 0.160784 0.000000
0.015686 0.109804 0.058824
0.133333 0.062745 0.125490
0.082353 0.000000 0.078431
0.047059 0.098039 0.129412
0.019608 0.141176 0.109804
0.082353 0.125490 0.070588
0.184314 0.094118 0.031373
0.239216 0.098039 0.011765
0.239216 0.133333 0.015686
0.270588 0.168627 0.031373
0.356863 0.172549 0.062745
0.447059 0.152941 0.078431
0.552941 0.121569 0.015686
0.654902 0.086275 0.011765
0.800000 0.043137 0.015686
0.890196 0.039216 0.019608
0.898039 0.074510 0.023529
0.870588 0.125490 0.031373
0.866667 0.156863 0.050980
0.913725 0.141176 0.066667
0.972549 0.133333 0.101961
0.941176 0.133333 0.133333
0.807843 0.200000 0.180392
0.270588 0.000000 0.000000
0.117647 0.070588 0.000000
0.031373 0.101961 0.015686
0.050980 0.098039 0.058824
0.125490 0.121569 0.113725
0.031373 0.101961 0.039216
0.058824 0.125490 0.054902
0.101961 0.149020 0.070588
0.145098 0.160784 0.062745
0.188235 0.160784 0.050980
0.243137 0.164706 0.035294
0.309804 0.168627 0.027451
0.384314 0.164706 0.027451
0.447059 0.149020 0.015686
0.533333 0.145098 0.019608
0.623529 0.149020 0.035294
0.701961 0.145098 0.050980
0.772549 0.141176 0.070588
0.835294 0.145098 0.094118
0.890196 0.156863 0.121569
0.929412 0.172549 0.145098
0.870588 0.262745 0.090196
0.984314 0.215686 0.121569
1.000000 0.215686 0.188235
0.866667 0.294118 0.235294
0.176471 0.082353 0.000000
0.000000 0.184314 0.000000
0.000000 0.200000 0.027451
0.000000 0.125490 0.058824
0.086275 0.070588 0.074510
0.078431 0.078431 0.070588
0.015686 0.121569 0.062745
0.019608 0.145098 0.050980
0.105882 0.145098 0.039216
0.200000 0.145098 0.031373
0.231373 0.176471 0.039216
0.223529 0.211765 0.043137
0.454902 0.176471 0.000000
0.498039 0.196078 0.000000
0.572549 0.219608 0.000000
0.643137 0.223529 0.000000
0.717647 0.219608 0.000000
0.784314 0.215686 0.000000
0.866667 0.215686 0.000000
0.933333 0.211765 0.000000
0.960784 0.192157 0.000000
0.992157 0.192157 0.000000
1.000000 0.196078 0.000000
1.000000 0.203922 0.000000
1.000000 0.215686 0.000000
0.000000 0.145098 0.000000
0.000000 0.149020 0.000000
0.000000 0.152941 0.000000
0.000000 0.164706 0.000000
0.000000 0.176471 0.000000
0.000000 0.180392 0.000000
0.011765 0.180392 0.000000
0.039216 0.168627 0.000000
0.105882 0.172549 0.000000
0.180392 0.168627 0.000000
0.270588 0.164706 0.000000
0.360784 0.152941 0.000000
0.435294 0.133333 0.000000
0.509804 0.129412 0.000000
0.580392 0.133333 0.000000
0.619608 0.145098 0.000000
0.772549 0.149020 0.000000
0.776471 0.180392 0.000000
0.776471 0.231373 0.000000
0.807843 0.266667 0.000000
0.870588 0.286275 0.000000
0.933333 0.282353 0.000000
0.960784 0.274510 0.019608
0.929412 0.290196 0.074510
0.803922 0.325490 0.133333
0.349020 0.113725 0.000000
0.133333 0.152941 0.000000
0.007843 0.211765 0.000000
0.000000 0.223529 0.000000
0.035294 0.243137 0.031373
0.066667 0.168627 0.000000
0.160784 0.180392 0.023529
0.101961 0.152941 0.000000
0.145098 0.168627 0.000000
0.207843 0.188235 0.000000
0.282353 0.192157 0.000000
0.352941 0.180392 0.000000
0.427451 0.176471 0.000000
0.509804 0.172549 0.000000
0.588235 0.160784 0.000000
0.682353 0.188235 0.000000
0.741176 0.180392 0.000000
0.792157 0.188235 0.000000
0.847059 0.203922 0.000000
0.894118 0.231373 0.000000
0.937255 0.250980 0.000000
0.964706 0.270588 0.003922
0.976471 0.282353 0.007843
1.000000 0.274510 0.094118
0.784314 0.435294 0.160784
0.090196 0.227451 0.000000
0.000000 0.266667 0.000000
0.000000 0.215686 0.000000
0.121569 0.180392 0.058824
0.078431 0.133333 0.035294
0.062745 0.243137 0.090196
0.000000 0.243137 0.023529
0.050980 0.223529 0.000000
0.156863 0.196078 0.000000
0.215686 0.203922 0.000000
0.223529 0.250980 0.000000
0.254902 0.290196 0.000000
0.345098 0.290196 0.000000
0.435294 0.274510 0.015686
0.525490 0.262745 0.000000
0.631373 0.219608 0.000000
0.780392 0.180392 0.000000
0.870588 0.176471 0.000000
0.882353 0.215686 0.000000
0.858824 0.266667 0.000000
0.854902 0.298039 0.000000
0.905882 0.290196 0.019608
0.960784 0.274510 0.050980
0.941176 0.290196 0.094118
0.823529 0.372549 0.160784
0.286275 0.133333 0.000000
0.117647 0.227451 0.000000
0.000000 0.223529 0.000000
0.000000 0.184314 0.000000
0.035294 0.184314 0.000000
0.031373 0.247059 0.000000
0.054902 0.254902 0.000000
0.086275 0.270588 0.003922
0.125490 0.270588 0.000000
0.172549 0.282353 0.000000
0.243137 0.298039 0.000000
0.337255 0.329412 0.003922
0.419608 0.337255 0.011765
0.462745 0.298039 0.000000
0.537255 0.290196 0.000000
0.623529 0.286275 0.000000
0.694118 0.274510 0.000000
0.752941 0.262745 0.003922
0.811765 0.250980 0.015686
0.862745 0.262745 0.039216
0.890196 0.274510 0.058824
0.784314 0.309804 0.000000
0.898039 0.262745 0.000000
0.964706 0.270588 0.058824
0.811765 0.380392 0.141176
0.172549 0.211765 0.000000
0.000000 0.345098 0.000000
0.000000 0.368627 0.007843
0.015686 0.294118 0.035294
0.133333 0.247059 0.066667
0.121569 0.250980 0.066667
0.062745 0.298039 0.054902
0.058824 0.325490 0.039216
0.149020 0.321569 0.027451
0.239216 0.325490 0.031373
0.270588 0.356863 0.031373
0.258824 0.388235 0.031373
0.462745 0.333333 0.000000
0.498039 0.345098 0.000000
0.552941 0.349020 0.000000
0.600000 0.329412 0.000000
0.650980 0.301961 0.000000
0.701961 0.274510 0.000000
0.764706 0.258824 0.000000
0.819608 0.250980 0.000000
0.937255 0.321569 0.019608
0.964706 0.313725 0.015686
0.988235 0.321569 0.019608
1.000000 0.329412 0.023529
1.000000 0.337255 0.023529
0.007843 0.384314 0.031373
0.000000 0.388235 0.031373
0.000000 0.396078 0.035294
0.000000 0.400000 0.035294
0.000000 0.403922 0.027451
0.000000 0.407843 0.019608
0.000000 0.403922 0.015686
0.031373 0.392157 0.000000
0.129412 0.435294 0.035294
0.207843 0.435294 0.031373
0.301961 0.439216 0.031373
0.400000 0.431373 0.027451
0.478431 0.419608 0.015686
0.556863 0.419608 0.019608
0.635294 0.431373 0.035294
0.678431 0.447059 0.047059
0.760784 0.368627 0.023529
0.745098 0.392157 0.011765
0.741176 0.427451 0.000000
0.756863 0.450980 0.000000
0.803922 0.462745 0.000000
0.862745 0.454902 0.000000
0.898039 0.450980 0.011765
0.866667 0.466667 0.070588
0.764706 0.529412 0.145098
0.321569 0.329412 0.000000
0.121569 0.384314 0.000000
0.007843 0.454902 0.019608
0.000000 0.466667 0.039216
0.023529 0.474510 0.070588
0.039216 0.380392 0.011765
0.129412 0.380392 0.039216
0.121569 0.450980 0.000000
0.160784 0.466667 0.000000
0.223529 0.478431 0.015686
0.286275 0.478431 0.019608
0.364706 0.474510 0.031373
0.450980 0.478431 0.039216
0.552941 0.490196 0.054902
0.639216 0.490196 0.062745
0.666667 0.447059 0.019608
0.717647 0.435294 0.003922
0.764706 0.435294 0.000000
0.807843 0.439216 0.000000
0.839216 0.450980 0.000000
0.866667 0.462745 0.000000
0.886275 0.470588 0.000000
0.890196 0.474510 0.003922
0.972549 0.443137 0.082353
0.733333 0.631373 0.164706
0.078431 0.450980 0.000000
0.000000 0.517647 0.000000
0.011765 0.482353 0.058824
0.145098 0.435294 0.125490
0.090196 0.376471 0.090196
0.066667 0.482353 0.137255
0.031373 0.521569 0.113725
0.090196 0.505882 0.074510
0.203922 0.478431 0.039216
0.262745 0.486275 0.027451
0.274510 0.533333 0.039216
0.301961 0.572549 0.066667
0.396078 0.576471 0.090196
0.482353 0.560784 0.117647
0.513725 0.525490 0.019608
0.619608 0.482353 0.019608
0.752941 0.435294 0.015686
0.839216 0.427451 0.015686
0.843137 0.450980 0.011765
0.807843 0.501961 0.015686
0.800000 0.521569 0.019608
0.843137 0.509804 0.043137
0.929412 0.517647 0.098039
0.933333 0.556863 0.164706
0.839216 0.666667 0.254902
0.333333 0.454902 0.000000
0.180392 0.556863 0.066667
0.058824 0.549020 0.078431
0.023529 0.501961 0.066667
0.070588 0.494118 0.098039
0.054902 0.501961 0.066667
0.062745 0.501961 0.062745
0.074510 0.494118 0.039216
0.098039 0.486275 0.019608
0.137255 0.482353 0.000000
0.211765 0.505882 0.007843
0.309804 0.541176 0.035294
0.396078 0.556863 0.039216
0.482353 0.560784 0.047059
0.552941 0.549020 0.050980
0.631373 0.537255 0.050980
0.694118 0.517647 0.050980
0.741176 0.494118 0.047059
0.788235 0.482353 0.054902
0.831373 0.486275 0.070588
0.870588 0.494118 0.090196
0.850980 0.619608 0.078431
0.949020 0.552941 0.090196
1.000000 0.552941 0.156863
0.874510 0.674510 0.247059
0.250980 0.529412 0.011765
0.023529 0.678431 0.094118
0.000000 0.690196 0.149020
0.086275 0.600000 0.160784
0.149020 0.498039 0.129412
0.133333 0.501961 0.125490
0.058824 0.537255 0.109804
0.050980 0.552941 0.086275
0.125490 0.541176 0.062745
0.200000 0.529412 0.043137
0.227451 0.552941 0.035294
0.211765 0.580392 0.031373
0.474510 0.596078 0.188235
0.513725 0.611765 0.211765
0.576471 0.623529 0.239216
0.639216 0.619608 0.250980
0.698039 0.603922 0.250980
0.764706 0.588235 0.254902
0.831373 0.584314 0.270588
0.890196 0.580392 0.278431
0.901961 0.537255 0.235294
0.929412 0.529412 0.235294
0.952941 0.537255 0.239216
0.964706 0.545098 0.239216
0.968627 0.556863 0.239216
0.090196 0.627451 0.282353
0.086275 0.631373 0.282353
0.074510 0.635294 0.282353
0.062745 0.643137 0.274510
0.054902 0.639216 0.270588
0.054902 0.643137 0.262745
0.062745 0.635294 0.247059
0.090196 0.623529 0.231373
0.094118 0.564706 0.172549
0.172549 0.568627 0.168627
0.274510 0.576471 0.176471
0.368627 0.572549 0.176471
0.458824 0.568627 0.168627
0.545098 0.568627 0.176471
0.619608 0.588235 0.192157
0.666667 0.607843 0.211765
0.815686 0.592157 0.243137
0.796078 0.607843 0.223529
0.772549 0.623529 0.188235
0.772549 0.631373 0.152941
0.807843 0.631373 0.133333
0.858824 0.615686 0.141176
0.894118 0.611765 0.176471
0.862745 0.631373 0.231373
0.831373 0.760784 0.376471
0.380392 0.552941 0.168627
0.184314 0.611765 0.200000
0.058824 0.670588 0.243137
0.015686 0.690196 0.266667
0.082353 0.694118 0.298039
0.098039 0.603922 0.239216
0.184314 0.607843 0.270588
0.086275 0.619608 0.133333
0.117647 0.627451 0.149020
0.168627 0.631373 0.152941
0.231373 0.627451 0.164706
0.301961 0.619608 0.156863
0.392157 0.619608 0.176471
0.494118 0.639216 0.196078
0.580392 0.647059 0.207843
0.709804 0.694118 0.262745
0.760784 0.682353 0.243137
0.792157 0.666667 0.223529
0.819608 0.658824 0.203922
0.839216 0.654902 0.192157
0.850980 0.654902 0.180392
0.858824 0.654902 0.176471
0.866667 0.654902 0.168627
0.952941 0.588235 0.223529
0.752941 0.803922 0.341176
0.141176 0.678431 0.121569
0.047059 0.784314 0.243137
0.129412 0.764706 0.337255
0.247059 0.705882 0.396078
0.164706 0.619608 0.333333
0.117647 0.698039 0.360784
0.011765 0.662745 0.262745
0.070588 0.650980 0.219608
0.176471 0.615686 0.184314
0.231373 0.619608 0.164706
0.235294 0.662745 0.164706
0.262745 0.698039 0.188235
0.349020 0.694118 0.215686
0.431373 0.678431 0.231373
0.564706 0.788235 0.274510
0.666667 0.745098 0.270588
0.796078 0.686275 0.254902
0.870588 0.662745 0.247059
0.858824 0.682353 0.231373
0.815686 0.717647 0.223529
0.803922 0.729412 0.223529
0.839216 0.713725 0.231373
0.780392 0.576471 0.149020
0.792157 0.623529 0.215686
0.725490 0.752941 0.337255
0.258824 0.576471 0.113725
0.129412 0.713725 0.219608
0.039216 0.737255 0.258824
0.035294 0.709804 0.270588
0.090196 0.713725 0.313725
0.129412 0.741176 0.313725
0.137255 0.741176 0.301961
0.145098 0.725490 0.278431
0.149020 0.705882 0.243137
0.180392 0.690196 0.211765
0.223529 0.690196 0.196078
0.309804 0.705882 0.203922
0.388235 0.713725 0.203922
0.549020 0.796078 0.286275
0.623529 0.780392 0.290196
0.694118 0.772549 0.290196
0.756863 0.752941 0.290196
0.807843 0.729412 0.286275
0.850980 0.717647 0.294118
0.898039 0.725490 0.313725
0.933333 0.729412 0.329412
0.792157 0.729412 0.192157
0.878431 0.654902 0.200000
0.933333 0.650980 0.250980
0.819608 0.792157 0.372549
0.231373 0.674510 0.156863
0.023529 0.839216 0.258824
0.000000 0.847059 0.305882
0.078431 0.749020 0.309804
0.219608 0.733333 0.368627
0.200000 0.729412 0.360784
0.113725 0.752941 0.325490
0.094118 0.756863 0.290196
0.149020 0.729412 0.258824
0.215686 0.709804 0.227451
0.223529 0.721569 0.207843
0.200000 0.741176 0.196078
0.364706 0.682353 0.419608
0.411765 0.705882 0.450980
0.486275 0.729412 0.482353
0.560784 0.737255 0.505882
0.631373 0.737255 0.529412
0.709804 0.737255 0.537255
0.788235 0.737255 0.560784
0.854902 0.741176 0.576471
0.886275 0.713725 0.560784
0.913725 0.709804 0.556863
0.933333 0.717647 0.564706
0.949020 0.725490 0.556863
0.945098 0.733333 0.560784
0.258824 0.686275 0.525490
0.254902 0.690196 0.525490
0.243137 0.694118 0.525490
0.227451 0.698039 0.521569
0.223529 0.701961 0.517647
0.219608 0.698039 0.505882
0.231373 0.694118 0.490196
0.258824 0.682353 0.478431
0.368627 0.737255 0.529412
0.447059 0.741176 0.521569
0.549020 0.749020 0.529412
0.639216 0.745098 0.529412
0.729412 0.741176 0.525490
0.819608 0.741176 0.533333
0.890196 0.760784 0.552941
0.941176 0.780392 0.568627
0.996078 0.670588 0.513725
0.976471 0.690196 0.490196
0.960784 0.709804 0.458824
0.968627 0.725490 0.431373
1.000000 0.729412 0.415686
1.000000 0.721569 0.435294
1.000000 0.721569 0.478431
1.000000 0.741176 0.533333
1.000000 0.850980 0.658824
0.572549 0.639216 0.435294
0.360784 0.678431 0.458824
0.223529 0.733333 0.490196
0.180392 0.745098 0.505882
0.254902 0.768627 0.556863
0.290196 0.686275 0.513725
0.388235 0.701961 0.549020
0.345098 0.807843 0.501961
0.376471 0.811765 0.509804
0.427451 0.811765 0.517647
0.478431 0.800000 0.517647
0.545098 0.784314 0.509804
0.627451 0.780392 0.517647
0.725490 0.788235 0.533333
0.807843 0.792157 0.541176
0.850980 0.768627 0.513725
0.901961 0.752941 0.498039
0.941176 0.741176 0.482353
0.972549 0.741176 0.466667
1.000000 0.745098 0.466667
1.000000 0.752941 0.458824
1.000000 0.756863 0.458824
1.000000 0.764706 0.458824
1.000000 0.705882 0.529412
0.960784 0.901961 0.631373
0.325490 0.752941 0.388235
0.207843 0.847059 0.498039
0.290196 0.815686 0.584314
0.411765 0.760784 0.643137
0.341176 0.686275 0.592157
0.305882 0.776471 0.627451
0.317647 0.862745 0.647059
0.368627 0.839216 0.600000
0.470588 0.800000 0.556863
0.521569 0.800000 0.533333
0.513725 0.831373 0.529412
0.537255 0.862745 0.541176
0.619608 0.854902 0.564706
0.698039 0.835294 0.576471
0.698039 0.847059 0.513725
0.796078 0.803922 0.509804
0.933333 0.756863 0.501961
1.000000 0.733333 0.501961
1.000000 0.760784 0.494118
0.980392 0.800000 0.494118
0.968627 0.819608 0.494118
1.000000 0.807843 0.509804
1.000000 0.800000 0.549020
1.000000 0.835294 0.611765
1.000000 0.945098 0.713725
0.513725 0.752941 0.478431
0.396078 0.894118 0.584314
0.321569 0.937255 0.635294
0.329412 0.929412 0.674510
0.403922 0.941176 0.729412
0.403922 0.905882 0.674510
0.427451 0.921569 0.674510
0.450980 0.921569 0.670588
0.470588 0.917647 0.647059
0.498039 0.901961 0.615686
0.533333 0.890196 0.588235
0.596078 0.886275 0.576471
0.654902 0.878431 0.560784
0.686275 0.831373 0.517647
0.764706 0.819608 0.509804
0.843137 0.819608 0.529412
0.913725 0.807843 0.537255
0.968627 0.792157 0.537255
1.000000 0.784314 0.549020
1.000000 0.792157 0.572549
1.000000 0.807843 0.592157
1.000000 0.843137 0.498039
1.000000 0.776471 0.509804
1.000000 0.784314 0.576471
1.000000 0.937255 0.709804
0.501961 0.835294 0.509804
0.309804 1.000000 0.627451
0.290196 1.000000 0.690196
0.384314 0.945098 0.701961
0.525490 0.921569 0.756863
0.501961 0.921569 0.749020
0.423529 0.952941 0.721569
0.400000 0.964706 0.690196
0.466667 0.945098 0.658824
0.537255 0.929412 0.643137
0.549020 0.949020 0.623529
0.525490 0.976471 0.619608
0.611765 0.886275 0.690196
0.650980 0.898039 0.713725
0.709804 0.909804 0.741176
0.772549 0.909804 0.752941
0.831373 0.894118 0.752941
0.898039 0.878431 0.760784
0.964706 0.870588 0.768627
1.000000 0.862745 0.776471
1.000000 0.784314 0.701961
1.000000 0.780392 0.698039
1.000000 0.788235 0.701961
1.000000 0.792157 0.701961
1.000000 0.803922 0.701961
0.007843 0.149020 0.141176
0.000000 0.152941 0.141176
0.000000 0.156863 0.141176
0.000000 0.164706 0.141176
0.000000 0.164706 0.141176
0.000000 0.172549 0.137255
0.000000 0.168627 0.125490
0.011765 0.160784 0.109804
0.011765 0.101961 0.039216
0.090196 0.098039 0.043137
0.176471 0.101961 0.043137
0.266667 0.098039 0.035294
0.352941 0.090196 0.027451
0.431373 0.090196 0.023529
0.505882 0.101961 0.043137
0.552941 0.113725 0.058824
0.729412 0.125490 0.117647
0.725490 0.149020 0.109804
0.725490 0.192157 0.098039
0.749020 0.231373 0.082353
0.811765 0.250980 0.094118
0.882353 0.254902 0.113725
0.929412 0.262745 0.164706
0.901961 0.286275 0.227451
0.764706 0.305882 0.266667
0.305882 0.094118 0.047059
0.086275 0.129412 0.062745
0.000000 0.180392 0.094118
0.000000 0.196078 0.117647
0.000000 0.219608 0.160784
0.023529 0.145098 0.121569
0.121569 0.160784 0.156863
0.000000 0.152941 0.003922
0.000000 0.160784 0.011765
0.043137 0.168627 0.023529
0.101961 0.156863 0.019608
0.164706 0.141176 0.015686
0.235294 0.129412 0.015686
0.325490 0.129412 0.023529
0.407843 0.125490 0.027451
0.549020 0.196078 0.094118
0.603922 0.188235 0.086275
0.658824 0.196078 0.086275
0.713725 0.215686 0.090196
0.764706 0.235294 0.109804
0.803922 0.262745 0.121569
0.827451 0.278431 0.137255
0.839216 0.294118 0.141176
1.000000 0.266667 0.247059
0.760784 0.419608 0.301961
0.058824 0.203922 0.000000
0.000000 0.239216 0.039216
0.000000 0.188235 0.105882
0.086275 0.152941 0.184314
0.054902 0.117647 0.176471
0.047059 0.235294 0.243137
0.000000 0.180392 0.125490
0.000000 0.164706 0.078431
0.078431 0.125490 0.039216
0.125490 0.121569 0.011765
0.125490 0.156863 0.003922
0.141176 0.184314 0.019608
0.227451 0.176471 0.043137
0.305882 0.160784 0.058824
0.368627 0.258824 0.074510
0.478431 0.219608 0.082353
0.631373 0.184314 0.082353
0.725490 0.180392 0.090196
0.745098 0.219608 0.105882
0.725490 0.282353 0.125490
0.729412 0.309804 0.137255
0.780392 0.301961 0.156863
0.788235 0.239216 0.141176
0.772549 0.250980 0.184314
0.662745 0.329412 0.250980
0.137255 0.101961 0.000000
0.000000 0.207843 0.054902
0.000000 0.231373 0.086275
0.000000 0.215686 0.117647
0.000000 0.227451 0.172549
0.000000 0.117647 0.043137
0.000000 0.141176 0.050980
0.000000 0.168627 0.070588
0.011765 0.180392 0.070588
0.058824 0.180392 0.054902
0.101961 0.180392 0.035294
0.164706 0.184314 0.027451
0.231373 0.180392 0.015686
0.376471 0.247059 0.086275
0.450980 0.243137 0.086275
0.533333 0.243137 0.105882
0.607843 0.235294 0.117647
0.670588 0.223529 0.121569
0.729412 0.223529 0.141176
0.784314 0.235294 0.168627
0.811765 0.250980 0.188235
0.709804 0.278431 0.086275
0.800000 0.207843 0.094118
0.858824 0.200000 0.149020
0.733333 0.321569 0.247059
0.113725 0.172549 0.003922
0.000000 0.313725 0.086275
0.000000 0.321569 0.133333
0.000000 0.227451 0.145098
0.003922 0.117647 0.109804
0.000000 0.121569 0.109804
0.000000 0.172549 0.098039
0.000000 0.200000 0.082353
0.000000 0.200000 0.070588
0.086275 0.207843 0.074510
0.113725 0.243137 0.074510
0.101961 0.274510 0.074510
0.180392 0.250980 0.000000
0.231373 0.270588 0.000000
0.294118 0.290196 0.000000
0.364706 0.298039 0.000000
0.435294 0.286275 0.000000
0.509804 0.278431 0.011765
0.584314 0.278431 0.027451
0.647059 0.278431 0.039216
0.764706 0.349020 0.121569
0.792157 0.341176 0.117647
0.819608 0.349020 0.113725
0.827451 0.356863 0.117647
0.831373 0.360784 0.113725
0.086275 0.133333 0.054902
0.082353 0.133333 0.054902
0.074510 0.145098 0.058824
0.062745 0.156863 0.062745
0.062745 0.164706 0.058824
0.070588 0.172549 0.058824
0.078431 0.172549 0.047059
0.105882 0.164706 0.035294
0.172549 0.176471 0.043137
0.247059 0.176471 0.035294
0.333333 0.176471 0.035294
0.415686 0.164706 0.023529
0.494118 0.149020 0.007843
0.564706 0.141176 0.000000
0.627451 0.149020 0.003922
0.666667 0.156863 0.015686
0.788235 0.098039 0.007843
0.788235 0.133333 0.007843
0.796078 0.180392 0.003922
0.831373 0.223529 0.003922
0.894118 0.243137 0.007843
0.960784 0.239216 0.027451
0.992157 0.239216 0.062745
0.956863 0.250980 0.113725
0.819608 0.274510 0.152941
0.368627 0.070588 0.000000
0.168627 0.121569 0.000000
0.047059 0.184314 0.019608
0.000000 0.200000 0.039216
0.066667 0.211765 0.078431
0.090196 0.125490 0.019608
0.176471 0.125490 0.050980
0.098039 0.196078 0.000000
0.137255 0.211765 0.000000
0.200000 0.227451 0.015686
0.270588 0.223529 0.019608
0.341176 0.215686 0.023529
0.411765 0.207843 0.019608
0.490196 0.200000 0.023529
0.572549 0.192157 0.023529
0.631373 0.180392 0.003922
0.686275 0.172549 0.000000
0.741176 0.184314 0.003922
0.796078 0.200000 0.007843
0.843137 0.227451 0.027451
0.894118 0.250980 0.043137
0.921569 0.274510 0.062745
0.933333 0.286275 0.066667
1.000000 0.243137 0.145098
0.831373 0.400000 0.200000
0.133333 0.184314 0.000000
0.000000 0.219608 0.000000
0.019608 0.168627 0.007843
0.152941 0.129412 0.082353
0.117647 0.090196 0.066667
0.105882 0.203922 0.129412
0.035294 0.207843 0.070588
0.094118 0.192157 0.027451
0.203922 0.156863 0.000000
0.254902 0.160784 0.000000
0.262745 0.203922 0.000000
0.290196 0.247059 0.003922
0.380392 0.243137 0.031373
0.470588 0.223529 0.050980
0.458824 0.247059 0.000000
0.568627 0.211765 0.000000
0.713725 0.176471 0.003922
0.811765 0.172549 0.011765
0.827451 0.207843 0.023529
0.811765 0.266667 0.043137
0.815686 0.298039 0.054902
0.862745 0.286275 0.074510
0.945098 0.290196 0.125490
0.929412 0.301961 0.168627
0.815686 0.376471 0.231373
0.282353 0.141176 0.000000
0.125490 0.239216 0.019608
0.019608 0.250980 0.039216
0.015686 0.223529 0.058824
0.082353 0.227451 0.098039
0.074510 0.211765 0.054902
0.105882 0.227451 0.066667
0.141176 0.247059 0.078431
0.184314 0.258824 0.078431
0.227451 0.266667 0.062745
0.294118 0.282353 0.066667
0.368627 0.305882 0.070588
0.447059 0.313725 0.074510
0.462745 0.250980 0.015686
0.537255 0.243137 0.015686
0.619608 0.247059 0.035294
0.690196 0.235294 0.035294
0.745098 0.223529 0.047059
0.803922 0.223529 0.066667
0.854902 0.235294 0.090196
0.890196 0.250980 0.113725
0.901961 0.400000 0.121569
1.000000 0.337255 0.141176
1.000000 0.325490 0.200000
0.909804 0.415686 0.266667
0.254902 0.223529 0.000000
0.000000 0.329412 0.027451
0.000000 0.329412 0.074510
0.070588 0.247059 0.094118
0.172549 0.184314 0.109804
0.160784 0.196078 0.113725
0.098039 0.247059 0.101961
0.090196 0.278431 0.090196
0.164706 0.282353 0.078431
0.250980 0.290196 0.082353
0.282353 0.329412 0.086275
0.262745 0.364706 0.086275
0.345098 0.349020 0.000000
0.392157 0.368627 0.000000
0.462745 0.392157 0.000000
0.541176 0.403922 0.000000
0.619608 0.400000 0.000000
0.694118 0.400000 0.000000
0.780392 0.403922 0.000000
0.843137 0.403922 0.000000
0.882353 0.392157 0.000000
0.905882 0.388235 0.000000
0.929412 0.396078 0.000000
0.941176 0.400000 0.000000
0.945098 0.415686 0.000000
0.031373 0.341176 0.031373
0.027451 0.345098 0.035294
0.023529 0.356863 0.039216
0.019608 0.368627 0.047059
0.015686 0.384314 0.047059
0.023529 0.392157 0.047059
0.039216 0.392157 0.039216
0.062745 0.388235 0.027451
